X:85
T:Lord Randell's Bride
R:Reel
C:MATTHEW
S:BARBARA BOUWSMA
M:C
L:1/4
Q:112
K:G
|:d  |  "G"  G> A  B  e | d B B e | d B c/2B/2A/2G/2 | "D"  F A A B |!
"G"G> A B e |"G" d e/2f/2 "Em"  g f/2e/2 | "Am"  d/2e/2d/2B/2 "D" A/2e/2d/2c/2 | "G"B G G :|!
|:d    |\
"G" g> f  a/2g/2f/2e/2 |  d B B d|g> f e/2g/2f/2e/2 | "Em"  B e e g |!
"G" d  e/2f/2  g/2f/2g/2a/2 |  b/2a/2g/2f/2  g  f/2e/2 |"Am" d/2e/2d/2B/2   "D"  A/2e/2d/2c/2 | "G" B G G :|]
